fs/keyboard_layout_split_20_filled.svg

<svg viewBox="0 0 20 20" fill="none" xmlns="http://www.w3.org/2000/svg" height="1em" width="1em">
  <path d="M2 5.5C2 4.67157 2.67157 4 3.5 4H16.5C17.3284 4 18 4.67157 18 5.5V13.5C18 14.3284 17.3284 15 16.5 15H3.5C2.67157 15 2 14.3284 2 13.5V5.5ZM5 12.5C5 12.7761 5.22386 13 5.5 13H8.5C8.77614 13 9 12.7761 9 12.5C9 12.2239 8.77614 12 8.5 12H5.5C5.22386 12 5 12.2239 5 12.5ZM4.75 8C5.16421 8 5.5 7.66421 5.5 7.25C5.5 6.83579 5.16421 6.5 4.75 6.5C4.33579 6.5 4 6.83579 4 7.25C4 7.66421 4.33579 8 4.75 8ZM8.5 7.25C8.5 6.83579 8.16421 6.5 7.75 6.5C7.33579 6.5 7 6.83579 7 7.25C7 7.66421 7.33579 8 7.75 8C8.16421 8 8.5 7.66421 8.5 7.25ZM5.25 10.5C5.66421 10.5 6 10.1642 6 9.75C6 9.33579 5.66421 9 5.25 9C4.83579 9 4.5 9.33579 4.5 9.75C4.5 10.1642 4.83579 10.5 5.25 10.5ZM9 9.75C9 9.33579 8.66421 9 8.25 9C7.83579 9 7.5 9.33579 7.5 9.75C7.5 10.1642 7.83579 10.5 8.25 10.5C8.66421 10.5 9 10.1642 9 9.75ZM14.5 12H11.5C11.2239 12 11 12.2239 11 12.5C11 12.7761 11.2239 13 11.5 13H14.5C14.7761 13 15 12.7761 15 12.5C15 12.2239 14.7761 12 14.5 12ZM14.5 7.25C14.5 7.66421 14.8358 8 15.25 8C15.6642 8 16 7.66421 16 7.25C16 6.83579 15.6642 6.5 15.25 6.5C14.8358 6.5 14.5 6.83579 14.5 7.25ZM12.25 8C12.6642 8 13 7.66421 13 7.25C13 6.83579 12.6642 6.5 12.25 6.5C11.8358 6.5 11.5 6.83579 11.5 7.25C11.5 7.66421 11.8358 8 12.25 8ZM14 9.75C14 10.1642 14.3358 10.5 14.75 10.5C15.1642 10.5 15.5 10.1642 15.5 9.75C15.5 9.33579 15.1642 9 14.75 9C14.3358 9 14 9.33579 14 9.75ZM11.75 10.5C12.1642 10.5 12.5 10.1642 12.5 9.75C12.5 9.33579 12.1642 9 11.75 9C11.3358 9 11 9.33579 11 9.75C11 10.1642 11.3358 10.5 11.75 10.5Z" fill="#212121"/>
</svg>

<svg viewBox="0 0 20 20" fill="none" xmlns="http://www.w3.org/2000/svg" height="1em" width="1em">
  <path d="M2 5.5A1.5 1.5 0 0 1 3.5 4h13A1.5 1.5 0 0 1 18 5.5v8a1.5 1.5 0 0 1-1.5 1.5h-13A1.5 1.5 0 0 1 2 13.5v-8Zm3 7a.5.5 0 0 0 .5.5h3a.5.5 0 0 0 0-1h-3a.5.5 0 0 0-.5.5ZM4.75 8a.75.75 0 1 0 0-1.5.75.75 0 0 0 0 1.5Zm3.75-.75a.75.75 0 1 0-1.5 0 .75.75 0 0 0 1.5 0ZM5.25 10.5a.75.75 0 1 0 0-1.5.75.75 0 0 0 0 1.5ZM9 9.75a.75.75 0 1 0-1.5 0 .75.75 0 0 0 1.5 0ZM14.5 12h-3a.5.5 0 0 0 0 1h3a.5.5 0 0 0 0-1Zm0-4.75a.75.75 0 1 0 1.5 0 .75.75 0 0 0-1.5 0ZM12.25 8a.75.75 0 1 0 0-1.5.75.75 0 0 0 0 1.5ZM14 9.75a.75.75 0 1 0 1.5 0 .75.75 0 0 0-1.5 0Zm-2.25.75a.75.75 0 1 0 0-1.5.75.75 0 0 0 0 1.5Z" fill="#212121"/>
</svg>
